icons/1_Primary/Regery.svg

<svg xmlns="http://www.w3.org/2000/svg" width="1024" height="1024" fill="none">
   <g clip-path="url(#a)">
      <path fill="#8C72BD" d="M512 1024c282.77 0 512-229.23 512-512S794.77 0 512 0 0 229.23 0 512s229.23 512 512 512Z"/>
      <path fill="#fff" d="M551.4 272c61.1 0 108.2 17.2 140 48.6 26.7 26.7 41.3 64.3 41.3 111.1 0 77.5-41.7 126.1-102.7 148.8 7.8 11.5 47 68.6 117.4 171.5H623.8L519.6 598.5 456 505.2h88.8c51.5 0 80.8-27.4 80.8-69.1 0-45.3-31.4-68.7-83-68.7h-181l-65-95.4h254.8ZM429.3 605.3c-1 .1-1 49 0 146.7h-110V605.3c74.4-.1 111-.1 110 0Z"/>
   </g>
   <defs>
      <clipPath id="a">
         <path fill="#fff" d="M0 0h1024v1024H0z"/>
      </clipPath>
   </defs>
</svg>

<svg width="1024" height="1024" viewBox="0 0 1024 1024" fill="none" xmlns="http://www.w3.org/2000/svg">
<g clip-path="url(#clip0_2_3312)">
<path d="M512 1024C794.77 1024 1024 794.77 1024 512C1024 229.23 794.77 0 512 0C229.23 0 0 229.23 0 512C0 794.77 229.23 1024 512 1024Z" fill="#8C72BD"/>
<path d="M551.4 272C612.5 272 659.6 289.2 691.4 320.6C718.1 347.3 732.7 384.9 732.7 431.7C732.7 509.2 691 557.8 630 580.5C637.8 592 677 649.1 747.4 752H623.8L519.6 598.5L456 505.2H544.8C596.3 505.2 625.6 477.8 625.6 436.1C625.6 390.8 594.2 367.4 542.6 367.4H361.6L296.6 272H551.4ZM429.3 605.3C428.3 605.4 428.3 654.3 429.3 752H319.3V605.3C393.7 605.2 430.3 605.2 429.3 605.3Z" fill="white"/>
</g>
<defs>
<clipPath id="clip0_2_3312">
<rect width="1024" height="1024" fill="white"/>
</clipPath>
</defs>
</svg>
